svg/icon/iost.svg

<svg height="32" viewBox="0 0 32 32" width="32" xmlns="http://www.w3.org/2000/svg" xmlns:xlink="http://www.w3.org/1999/xlink"><defs><linearGradient id="a" x1="50%" x2="50%" y1="0%" y2="100%"><stop offset="0" stop-color="#fff" stop-opacity=".5"/><stop offset="1" stop-opacity=".5"/></linearGradient><circle id="b" cx="16" cy="15" r="15"/><filter id="c" height="111.7%" width="111.7%" x="-5.8%" y="-4.2%"><feOffset dy=".5" in="SourceAlpha" result="shadowOffsetOuter1"/><feGaussianBlur in="shadowOffsetOuter1" result="shadowBlurOuter1" stdDeviation=".5"/><feComposite in="shadowBlurOuter1" in2="SourceAlpha" operator="out" result="shadowBlurOuter1"/><feColorMatrix in="shadowBlurOuter1" values="0 0 0 0 0   0 0 0 0 0   0 0 0 0 0  0 0 0 0.199473505 0"/></filter><path id="d" d="m24.5 10v10l-8.5 5-8.5-5v-10l8.5-5zm-8.7684372 5.4074011-.7900491.4666656 1.4766677.8621353.7845193-.4633993 2.0989303 1.2347025-3.130883 1.8412747-6.49522247-3.7864675-.02606551 1.8424293 6.52544328 3.7907013 6.2693214-3.6879378-3.6732396-2.1610555.7403033-.4372818-1.4766677-.8621353-.7346851.4339632-1.0308309-.6064628.9023321-.5329889-1.4762899-.8621353-.8969024.5297817-1.7542242-1.0320525 3.1305053-1.8412747 4.3276299 2.5290586 1.5854628-.9379571-5.9164926-3.43776458-6.27083238 3.68793778 3.32942778 1.9585466-.6276812.3707583 1.47629.8621353.6223399-.3676033z"/><filter id="e" height="117.5%" width="120.6%" x="-10.3%" y="-6.2%"><feOffset dy=".5" in="SourceAlpha" result="shadowOffsetOuter1"/><feGaussianBlur in="shadowOffsetOuter1" result="shadowBlurOuter1" stdDeviation=".5"/><feColorMatrix in="shadowBlurOuter1" values="0 0 0 0 0   0 0 0 0 0   0 0 0 0 0  0 0 0 0.204257246 0"/></filter></defs><g fill="none" fill-rule="evenodd"><use fill="#000" filter="url(#c)" xlink:href="#b"/><use fill="#1c1c1c" xlink:href="#b"/><use fill="url(#a)" xlink:href="#b"/><circle cx="16" cy="15" r="14.5" stroke="#000" stroke-opacity=".097"/><g fill-rule="nonzero"><use fill="#000" filter="url(#e)" xlink:href="#d"/><use fill="#fff" fill-rule="evenodd" xlink:href="#d"/></g></g></svg>

<svg xmlns="http://www.w3.org/2000/svg" xmlns:xlink="http://www.w3.org/1999/xlink" width="32" height="32" viewBox="0 0 32 32">
  <defs>
    <linearGradient id="iost-c" x1="50%" x2="50%" y1="0%" y2="100%">
      <stop offset="0%" stop-color="#FFF" stop-opacity=".5"/>
      <stop offset="100%" stop-opacity=".5"/>
    </linearGradient>
    <circle id="iost-b" cx="16" cy="15" r="15"/>
    <filter id="iost-a" width="111.7%" height="111.7%" x="-5.8%" y="-4.2%" filterUnits="objectBoundingBox">
      <feOffset dy=".5" in="SourceAlpha" result="shadowOffsetOuter1"/>
      <feGaussianBlur in="shadowOffsetOuter1" result="shadowBlurOuter1" stdDeviation=".5"/>
      <feComposite in="shadowBlurOuter1" in2="SourceAlpha" operator="out" result="shadowBlurOuter1"/>
      <feColorMatrix in="shadowBlurOuter1" values="0 0 0 0 0   0 0 0 0 0   0 0 0 0 0  0 0 0 0.199473505 0"/>
    </filter>
    <path id="iost-e" d="M24.5,10 L24.5,20 L16,25 L7.5,20 L7.5,10 L16,5 L24.5,10 Z M15.7315628,15.4074011 L14.9415137,15.8740667 L16.4181814,16.736202 L17.2027007,16.2728027 L19.301631,17.5075052 L16.170748,19.3487799 L9.67552553,15.5623124 L9.64946002,17.4047417 L16.1749033,21.195443 L22.4442247,17.5075052 L18.7709851,15.3464497 L19.5112884,14.9091679 L18.0346207,14.0470326 L17.2999356,14.4809958 L16.2691047,13.874533 L17.1714368,13.3415441 L15.6951469,12.4794088 L14.7982445,13.0091905 L13.0440203,11.977138 L16.1745256,10.1358633 L20.5021555,12.6649219 L22.0876183,11.7269648 L16.1711257,8.28920022 L9.90029332,11.977138 L13.2297211,13.9356846 L12.6020399,14.3064429 L14.0783299,15.1685782 L14.7006698,14.8009749 L15.7315628,15.4074011 Z"/>
    <filter id="iost-d" width="120.6%" height="117.5%" x="-10.3%" y="-6.2%" filterUnits="objectBoundingBox">
      <feOffset dy=".5" in="SourceAlpha" result="shadowOffsetOuter1"/>
      <feGaussianBlur in="shadowOffsetOuter1" result="shadowBlurOuter1" stdDeviation=".5"/>
      <feColorMatrix in="shadowBlurOuter1" values="0 0 0 0 0   0 0 0 0 0   0 0 0 0 0  0 0 0 0.204257246 0"/>
    </filter>
  </defs>
  <g fill="none" fill-rule="evenodd">
    <use fill="#000" filter="url(#iost-a)" xlink:href="#iost-b"/>
    <use fill="#1C1C1C" xlink:href="#iost-b"/>
    <use fill="url(#iost-c)" style="mix-blend-mode:soft-light" xlink:href="#iost-b"/>
    <circle cx="16" cy="15" r="14.5" stroke="#000" stroke-opacity=".097"/>
    <g fill-rule="nonzero">
      <use fill="#000" filter="url(#iost-d)" xlink:href="#iost-e"/>
      <use fill="#FFF" fill-rule="evenodd" xlink:href="#iost-e"/>
    </g>
  </g>
</svg>
